db/seeds/technology/svg/sidekiq.svg

<?xml version="1.0" encoding="UTF-8" standalone="no"?>
<svg width="367px" height="399px" viewBox="0 0 367 399" version="1.1" xmlns="http://www.w3.org/2000/svg" xmlns:xlink="http://www.w3.org/1999/xlink" xmlns:sketch="http://www.bohemiancoding.com/sketch/ns">
    <!-- Generator: Sketch 3.3.2 (12043) - http://www.bohemiancoding.com/sketch -->
    <title>red-kicker</title>
    <desc>Created with Sketch.</desc>
    <defs></defs>
    <g id="Page-1" stroke="none" stroke-width="1" fill="none" fill-rule="evenodd" sketch:type="MSPage">
        <g id="kicker" sketch:type="MSLayerGroup">
            <g id="Page-1" sketch:type="MSShapeGroup">
                <path d="M103.633726,185.667201 C102.888936,185.699737 102.519714,185.34888 102.339117,185.042385 C102.339117,185.042385 97.747924,184.090638 96.3994618,184.497953 C95.0509996,184.905269 87.3495144,183.554271 83.9703322,181.110377 C80.5911501,178.674548 77.2159812,180.436894 74.1097021,178.537431 C71.0074364,176.637969 66.2757787,176.908168 62.7681716,176.775085 C59.2565512,176.642002 54.7977966,176.908168 53.1764313,179.077831 C51.555066,181.24346 45.2100696,187.889563 42.9144732,190.595592 C40.6188768,193.305653 31.3000395,203.061068 27.6519676,204.549182 C27.6519676,204.549182 28.5950885,206.045361 28.0573089,207.12616 C27.5155161,208.215024 27.9208574,211.324335 27.9208574,212.413199 C27.9208574,213.502063 28.1897472,215.256344 27.2506396,216.345208 C26.2994921,217.430039 25.7617125,219.188353 25.7617125,219.865868 C25.7617125,220.543384 24.6781268,222.983245 25.7617125,226.237739 C26.841285,229.492232 27.7844059,233.145976 23.3296646,231.657862 C18.87091,230.169748 19.8180442,226.104655 16.1739855,225.963506 C12.5299269,225.830423 7.80228248,225.963506 6.44980696,220.954732 C5.09331817,215.937892 2.53284524,207.400392 1.99105238,206.045361 C1.4532728,204.694364 -0.4369823,198.459609 3.0746381,193.039486 C6.5862585,187.619363 7.26048961,183.687355 7.80228248,182.465407 C8.34006206,181.247493 10.9085615,173.520592 12.7948034,172.431728 C14.6850585,171.346896 14.0068141,167.95932 15.0903998,166.471206 C16.1699722,164.979059 15.7646309,162.539197 16.438862,161.184166 C17.1130931,159.829135 17.3859962,155.901159 18.3291171,152.920898 C19.2762513,149.940637 22.3825304,145.327081 24.2727855,142.891252 C26.1630406,140.455423 27.2466263,136.797646 27.2466263,135.575699 C27.2466263,134.353751 26.5723952,131.784839 29.674661,129.615177 C32.7769267,127.445515 38.3152538,120.400161 38.8570466,119.31533 C38.8570466,119.045131 38.8570466,114.032324 38.5841436,112.269977 C38.3152538,110.507631 37.9099124,108.8824 39.663716,108.204885 C41.4255461,107.523337 43.8535808,106.03119 43.8535808,106.03119 C43.8535808,106.03119 42.168003,103.86556 38.5199311,102.034656 C34.8718591,100.207784 23.9316566,87.8068334 22.9203099,80.4912807 C21.90495,73.1716952 21.4996087,61.585376 31.4284645,57.5202839 C41.3573204,53.4511589 52.2935096,51.2169714 53.9188882,51.0153299 C55.5402535,50.8136884 61.2110188,49.5917411 63.4424027,51.2169714 C63.4424027,51.2169714 61.0103547,50.8136884 59.9990081,51.2169714 C58.9836481,51.6242872 64.8550774,51.4226457 66.2757787,53.047876 C66.2757787,53.047876 63.4424027,52.2372773 61.8210374,52.4389187 C60.2036854,52.6405602 64.6584267,54.4714648 65.4691093,55.8950536 C66.2757787,57.3186424 69.3178453,58.3349155 68.912504,60.5731358 C68.5111759,62.8073234 68.3064986,66.2634582 68.7078267,67.2797313 C69.1171813,68.2960043 70.1285279,70.1269089 70.3332052,72.9700537 C70.5378825,75.8172313 71.3485652,79.680682 72.1552346,81.5075537 C72.9659172,83.3384583 74.9926238,89.0287808 74.1819412,93.0938729 C74.1819412,93.0938729 74.9926238,95.126419 79.0420238,90.4523696 C83.0954371,85.7742874 87.1488503,84.9636886 89.1715437,84.9636886 C91.1982503,84.9636886 94.2403169,82.9271097 96.2630103,83.7417413 C98.2937302,84.5563728 100.525114,83.5400998 102.953149,84.1490571 C105.381183,84.7580143 115.510703,84.1490571 117.742087,83.3344255 C119.965445,82.5197939 127.66693,81.5035209 129.284282,81.5035209 C130.905647,81.5035209 127.261588,78.8620176 130.299642,76.8294715 C133.341708,74.7969255 127.056911,73.7806524 131.720343,67.8886885 C136.375748,61.9926918 131.916994,60.3674615 131.110324,59.149547 C130.303655,57.9275997 130.098978,54.064149 130.098978,51.8299615 C130.098978,49.5917411 129.492972,43.9014187 129.492972,43.9014187 L130.303655,42.8851456 C130.303655,42.8851456 129.64949,41.8043473 129.007365,41.4212285 C128.369254,41.0381097 127.731142,38.7313313 127.225469,37.1948232 C126.707756,35.6583152 121.093176,27.3305223 119.435692,26.0521153 C117.774193,24.7656427 117.521357,22.8500487 117.774193,21.0554396 C118.031043,19.2567976 119.303253,17.7243224 119.050417,15.8006627 C118.793567,13.8810359 118.921992,11.3201892 118.793567,10.424901 C118.669155,9.52558004 119.050417,4.14981832 120.202228,3.63764897 C120.202228,3.63764897 121.093176,3.25049734 121.478451,4.52890429 C121.478451,4.52890429 120.836326,0.0484307194 122.240975,0.0484307194 C122.240975,0.0484307194 123.902473,-0.463738627 124.540584,1.84303985 C125.174683,4.14981832 125.816808,5.42822527 125.945233,6.06944516 C126.073657,6.71066505 126.583344,7.73097091 126.583344,7.73097091 C126.583344,7.73097091 127.983979,7.09781668 129.13579,7.6059532 C130.283589,8.11812254 131.054139,8.63029189 131.054139,9.27151178 C131.054139,9.91273167 131.054139,8.75934243 132.458787,8.75934243 C133.859422,8.75934243 135.139658,8.3721908 135.524933,9.78368113 C135.902181,11.1911386 136.163045,12.2195101 136.287456,13.6269676 C136.419894,15.0344251 136.672731,16.1878144 137.182418,17.2121531 C137.696118,18.2364918 138.454628,20.0270681 138.454628,22.4628971 C138.454628,24.8987261 139.353603,29.3791997 139.734864,31.4319099 C140.116126,33.4805873 144.458495,41.4212285 144.458495,41.4212285 C144.458495,41.4212285 151.096461,42.7036683 154.158594,42.0624484 C157.22474,41.4212285 162.58247,42.5746178 161.948371,45.3935656 C161.31026,48.2084806 160.928998,56.5362735 160.672148,63.0694573 C160.415298,69.6026411 159.391912,82.281857 158.372539,86.7663634 C157.349152,91.246837 151.096461,102.905747 148.544015,104.825374 C145.995582,106.749034 143.182272,108.027441 136.163045,111.358558 C129.139804,114.689675 120.968765,118.403911 120.968765,118.403911 C120.968765,118.403911 125.311134,124.549943 126.330507,124.937095 C127.349881,125.320213 127.225469,124.041806 128.497679,124.549943 C129.131777,124.804011 131.335068,125.67107 129.934433,125.094375 C129.931423,125.14785 137.624855,127.124286 137.624855,127.124286 C138.362117,127.109658 138.818376,126.975746 138.72653,126.538861 C138.341089,124.749601 140.131783,122.444519 140.894634,121.928696 C141.661501,121.416903 139.746342,124.233779 140.894634,125.511246 C142.046942,126.796773 158.548625,121.892427 158.23947,122.770938 C157.934329,123.649448 159.134817,123.717956 160.186749,122.891834 C161.230651,122.069741 165.602995,119.212567 168.718641,119.224657 C171.842318,119.240776 178.908732,119.865405 180.803816,119.172268 C182.6989,118.483162 191.315108,113.14762 194.193869,111.737168 C197.0646,110.318655 206.985685,110.455671 211.173339,107.626706 C215.360992,104.793711 224.583466,98.1645828 228.478024,95.7506937 C232.368567,93.3408345 261.240492,75.6255485 267.399514,74.6624108 C273.558537,73.6992731 288.321722,67.855969 290.851178,66.0465597 C293.380633,64.2411802 301.338379,59.8445976 302.932337,58.4663838 C304.530311,57.08817 312.512147,60.5901226 316.671696,66.5261136 C316.671696,66.5261136 324.786027,62.5405772 326.536571,62.3874423 C328.283099,62.2343075 331.519196,59.9735533 334.000471,58.0674272 C336.485761,56.1572712 343.969737,51.0997908 347.241968,49.4999344 C347.241968,49.4999344 348.896152,48.7705289 349.213338,47.6058979 C349.530523,46.441267 350.851461,44.2167816 352.039903,44.6761862 C352.039903,44.6761862 354.645644,41.339458 355.701591,42.3428944 C355.701591,42.3428944 357.990146,40.1707972 359.303053,41.3515476 C359.303053,41.3515476 360.599901,41.5369214 361.037537,42.2381179 C361.037537,42.2381179 362.68369,40.9042326 363.446542,41.9157287 C363.446542,41.9157287 364.634984,40.5697538 366.638473,42.1494609 C366.638473,42.1494609 367.971456,43.7976756 365.518286,46.828134 C365.518286,46.828134 363.980538,47.6260473 362.904516,49.8505327 C361.836523,52.0750181 358.845342,56.3023464 355.569096,57.9586208 C352.284819,59.6148953 348.494651,62.5244578 348.635176,68.4725383 C348.779717,74.4246488 346.254276,81.3439268 340.026999,79.7883989 C333.799721,78.2328711 328.33931,80.3324307 322.886928,83.3105008 C322.886928,83.3105008 322.409142,86.4537955 321.883176,87.2033503 C321.353195,87.9488753 318.916085,87.7070834 315.563553,89.8147028 C312.215036,91.9182922 310.171397,92.7081458 307.529522,94.6908393 C304.883631,96.6735328 304.317515,98.0114479 302.093201,99.0471232 C299.868886,100.090858 297.371551,102.919823 295.898043,104.487441 C294.416505,106.051028 288.968139,109.899549 282.528065,113.042844 C276.083977,116.190168 249.596968,125.672441 243.47408,130.657383 C237.343162,135.642326 226.073034,144.572507 208.969099,152.970745 C208.258443,153.317314 207.599981,153.655822 206.929475,153.990301 C205.893603,154.937319 191.186628,168.437367 186.151807,171.967528 C180.932296,175.626646 178.844492,176.150528 177.278639,184.520557 C176.250797,190.037443 172.055113,198.943444 169.156277,206.036006 C168.517891,212.939165 168.152525,219.64486 167.99594,223.731143 C167.795189,229.014296 161.053991,281.551644 159.431927,287.233754 C157.805849,292.923923 157.404348,297.19155 158.21538,301.66067 C159.026411,306.12173 156.998832,311.404883 154.569752,315.874003 C152.132642,320.343124 148.081499,330.9054 148.687765,336.998555 C149.294031,343.091711 149.904313,345.328286 148.081499,346.138289 C146.25467,346.948292 140.376698,346.750828 139.569681,348.78188 C138.75865,350.812932 135.719288,350.812932 135.719288,350.812932 C135.719288,350.812932 134.807882,359.876098 136.397825,361.471925 C137.991783,363.059691 143.612795,369.737178 136.775236,374.710031 C129.929647,379.690944 122.714677,384.107676 121.032388,387.585449 C119.34207,391.055163 115.592052,393.033826 114.186799,394.158159 C112.781546,395.282491 110.252091,396.882347 110.063386,397.535186 C109.878695,398.196083 107.818996,399.417132 105.847627,398.856981 C105.847627,398.856981 104.161324,399.602506 102.37866,397.627872 C102.37866,397.627872 99.479824,397.909963 98.9137078,396.036076 C98.9137078,396.036076 96.4765978,396.21742 96.1955472,394.343533 C96.1955472,394.343533 94.9749847,391.619344 98.6326572,390.495012 C102.2823,389.36262 108.096032,381.190054 108.284737,379.876318 C108.469427,378.562582 111.191603,370.385986 113.251302,367.008959 C115.311002,363.623873 118.029162,354.794439 118.406573,346.718589 C118.406573,346.718589 117.567436,346.158438 117.567436,345.316196 C117.567436,344.465895 117.615616,340.585135 118.021132,339.098115 C118.430663,337.603035 119.23768,333.27496 118.699668,326.907774 C118.157642,320.548647 119.5107,310.119356 118.699668,302.942167 C117.888637,295.764978 119.4304,245.939728 121.590474,239.439556 C123.754564,232.939384 124.561581,231.452364 124.429085,228.87728 C124.292575,226.302197 124.429085,218.44799 125.240117,218.045003 C126.047134,217.637987 126.183644,207.752729 125.914638,206.664665 C125.641618,205.584661 119.831901,201.522557 119.024884,198.677473 C119.024884,198.677473 119.157379,201.655543 119.024884,202.739577 C118.888374,203.82361 118.755879,202.469576 116.591789,200.164493 C114.423685,197.85941 110.372541,192.987304 110.103536,189.465202 C109.620026,189.20344 103.633726,185.667201 103.633726,185.667201 L103.633726,185.667201 Z" id="Shape" fill="#991B21"></path>
                <path d="M129.95299,125 C129.340375,135.998967 103.618484,186.096395 103.618484,186.096395 C102.719451,190.529116 102.906418,194.666861 103.359912,197.127688 C104.44989,203.027208 99,211.876487 99,211.876487 L104.935209,215 C112.950924,210.353118 109.513913,196.416513 109.513913,196.416513 C108.849583,193.92336 108.789913,191.523145 109.128044,189.268397 L109.191693,189.333049 C109.191693,189.333049 138.362529,131.513716 136.950331,126.959772 C136.946353,126.967853 133.469562,126.466798 129.95299,125 L129.95299,125 L129.95299,125 Z" id="Shape" fill="#000000"></path>
            </g>
        </g>
    </g>
</svg>

<svg width="367" height="399" xmlns="http://www.w3.org/2000/svg"><g fill="none" fill-rule="evenodd"><path d="M103.634 185.667c-.745.033-1.114-.318-1.295-.625 0 0-4.591-.951-5.94-.544-1.348.407-9.05-.944-12.429-3.388-3.379-2.435-6.754-.673-9.86-2.573-3.103-1.899-7.834-1.629-11.342-1.762-3.511-.133-7.97.133-9.592 2.303-1.62 2.165-7.966 8.812-10.262 11.518-2.295 2.71-11.614 12.465-15.262 13.953 0 0 .943 1.496.405 2.577-.541 1.089-.136 4.198-.136 5.287 0 1.09.269 2.843-.67 3.932-.952 1.085-1.49 2.843-1.49 3.52 0 .678-1.083 3.118 0 6.373 1.08 3.254 2.023 6.908-2.431 5.42-4.46-1.488-3.512-5.553-7.156-5.694-3.644-.134-8.372 0-9.724-5.01-1.357-5.016-3.917-13.554-4.459-14.909-.538-1.35-2.428-7.585 1.084-13.006 3.511-5.42 4.185-9.352 4.727-10.574.538-1.218 3.107-8.944 4.993-10.033 1.89-1.085 1.212-4.473 2.295-5.96 1.08-1.493.675-3.933 1.349-5.288.674-1.355.947-5.283 1.89-8.263.947-2.98 4.054-7.594 5.944-10.03 1.89-2.436 2.974-6.093 2.974-7.315 0-1.222-.675-3.791 2.428-5.96 3.102-2.17 8.64-9.216 9.182-10.3 0-.27 0-5.284-.273-7.046-.269-1.762-.674-3.388 1.08-4.065 1.762-.682 4.19-2.174 4.19-2.174s-1.686-2.165-5.334-3.996c-3.648-1.827-14.588-14.228-15.6-21.544-1.015-7.32-1.42-18.906 8.508-22.97 9.93-4.07 20.866-6.304 22.49-6.506 1.622-.201 7.293-1.423 9.524.202 0 0-2.432-.403-3.443 0-1.015.407 4.856.206 6.277 1.83 0 0-2.834-.81-4.455-.608-1.617.202 2.837 2.032 3.648 3.456.807 1.424 3.849 2.44 3.444 4.678-.402 2.234-.607 5.69-.205 6.707.41 1.016 1.42 2.847 1.625 5.69.205 2.847 1.016 6.71 1.822 8.538.81 1.83 2.838 7.52 2.027 11.586 0 0 .81 2.032 4.86-2.642 4.053-4.678 8.107-5.488 10.13-5.488 2.026 0 5.068-2.037 7.091-1.222 2.03.814 4.262-.202 6.69.407 2.428.609 12.558 0 14.79-.815 2.222-.814 9.924-1.83 11.541-1.83 1.622 0-2.022-2.642 1.016-4.675 3.042-2.032-3.243-3.048 1.42-8.94 4.656-5.896.197-7.522-.61-8.74-.806-1.221-1.011-5.085-1.011-7.319 0-2.238-.606-7.929-.606-7.929l.81-1.016s-.654-1.08-1.296-1.464c-.638-.383-1.276-2.69-1.782-4.226-.517-1.537-6.132-9.864-7.79-11.143-1.66-1.286-1.914-3.202-1.66-4.997.256-1.798 1.528-3.33 1.275-5.254-.256-1.92-.128-4.48-.256-5.376-.125-.9.256-6.275 1.408-6.787 0 0 .891-.388 1.276.89 0 0-.642-4.48.763-4.48 0 0 1.661-.512 2.3 1.795.634 2.307 1.276 3.585 1.404 4.226.129.642.638 1.662.638 1.662s1.401-.633 2.553-.125c1.148.512 1.918 1.024 1.918 1.666 0 .64 0-.513 1.405-.513 1.4 0 2.68-.387 3.066 1.025.377 1.407.638 2.436.762 3.843.133 1.407.386 2.56.895 3.585.514 1.024 1.273 2.815 1.273 5.25 0 2.437.899 6.917 1.28 8.97.381 2.049 4.723 9.99 4.723 9.99s6.638 1.282 9.7.64c3.067-.64 8.424.513 7.79 3.332-.638 2.814-1.019 11.142-1.276 17.675-.257 6.534-1.28 19.213-2.3 23.697-1.023 4.48-7.276 16.14-9.828 18.06-2.548 1.923-5.362 3.201-12.381 6.533-7.023 3.33-15.194 7.045-15.194 7.045s4.342 6.146 5.362 6.533c1.019.383.894-.895 2.167-.387.634.254 2.837 1.121 1.436.544-.003.054 7.69 2.03 7.69 2.03.738-.014 1.194-.148 1.103-.585-.386-1.79 1.405-4.094 2.168-4.61.767-.512-1.149 2.305 0 3.582 1.152 1.286 17.654-3.619 17.344-2.74-.305.878.896.947 1.948.12 1.044-.821 5.416-3.678 8.532-3.666 3.123.016 10.19.64 12.085-.053 1.895-.689 10.511-6.024 13.39-7.435 2.87-1.418 12.792-1.281 16.98-4.11 4.187-2.833 13.41-9.462 17.304-11.876 3.89-2.41 32.762-20.125 38.922-21.089 6.159-.963 20.922-6.806 23.451-8.615 2.53-1.806 10.487-6.202 12.081-7.58 1.598-1.379 9.58 2.123 13.74 8.06 0 0 8.114-3.986 9.865-4.14 1.746-.153 4.982-2.413 7.463-4.32 2.486-1.91 9.97-6.967 13.242-8.567 0 0 1.654-.73 1.971-1.894.318-1.165 1.638-3.39 2.827-2.93 0 0 2.606-3.337 3.662-2.333 0 0 2.288-2.172 3.601-.991 0 0 1.297.185 1.735.886 0 0 1.646-1.334 2.409-.322 0 0 1.188-1.346 3.191.233 0 0 1.333 1.649-1.12 4.68 0 0-1.537.797-2.613 3.022-1.068 2.224-4.06 6.451-7.336 8.108-3.284 1.656-7.074 4.565-6.934 10.514.145 5.952-2.38 12.87-8.608 11.315-6.227-1.555-11.688.544-17.14 3.523 0 0-.478 3.143-1.004 3.892-.53.746-2.967.504-6.32 2.612-3.348 2.103-5.392 2.893-8.033 4.876-2.646 1.983-3.212 3.32-5.437 4.356-2.224 1.044-4.721 3.873-6.195 5.44-1.481 1.564-6.93 5.413-13.37 8.556-6.444 3.147-32.931 12.63-39.054 17.614-6.13 4.985-17.401 13.916-34.505 22.314-.71.346-1.369.685-2.04 1.02-1.035.946-15.742 14.446-20.777 17.977-5.22 3.659-7.308 4.183-8.873 12.553-1.028 5.516-5.224 14.422-8.123 21.515a348.535 348.535 0 0 0-1.16 17.695c-.2 5.283-6.942 57.82-8.564 63.503-1.626 5.69-2.028 9.958-1.217 14.427.811 4.46-1.216 9.744-3.645 14.213-2.437 4.47-6.489 15.031-5.882 21.125.606 6.093 1.216 8.33-.607 9.14-1.826.81-7.704.612-8.511 2.643-.811 2.03-3.85 2.03-3.85 2.03s-.912 9.064.678 10.66c1.594 1.588 7.215 8.265.377 13.238-6.845 4.98-14.06 9.398-15.743 12.875-1.69 3.47-5.44 5.449-6.845 6.573-1.405 1.124-3.935 2.724-4.124 3.377-.184.661-2.244 1.882-4.215 1.322 0 0-1.687.746-3.47-1.23 0 0-2.898.283-3.464-1.59 0 0-2.437.18-2.718-1.693 0 0-1.221-2.725 2.437-3.849 3.65-1.132 9.463-9.305 9.652-10.619.184-1.313 2.907-9.49 4.966-12.867 2.06-3.385 4.778-12.215 5.156-20.29 0 0-.84-.56-.84-1.403 0-.85.049-4.73.454-6.218.41-1.495 1.217-5.823.679-12.19-.542-6.36.81-16.789 0-23.966-.811-7.177.73-57.002 2.89-63.502 2.165-6.5 2.972-7.988 2.84-10.563-.137-2.575 0-10.429.81-10.832.807-.407.944-10.292.675-11.38-.273-1.08-6.083-5.142-6.89-7.988 0 0 .132 2.979 0 4.063-.137 1.084-.27-.27-2.433-2.576-2.168-2.305-6.22-7.177-6.488-10.699-.484-.262-6.47-3.798-6.47-3.798z" fill="#991B21"/><path d="M129.953 125c-.613 10.999-26.335 61.096-26.335 61.096-.899 4.433-.712 8.57-.258 11.032 1.09 5.9-4.36 14.748-4.36 14.748l5.935 3.124c8.016-4.647 4.579-18.583 4.579-18.583a17.456 17.456 0 0 1-.386-7.149l.064.065s29.17-57.82 27.758-62.373c-.004.008-3.48-.493-6.997-1.96z" fill="#000"/></g></svg>
